src/pos-icons/sign-text.svg

<svg height="24" viewBox="0 0 24 24" width="24" xmlns="http://www.w3.org/2000/svg"><path d="m11 3 1-1 1 1v2h7a1 1 0 0 1 1 1v10a1 1 0 0 1 -1 1h-7v3a2 2 0 0 1 2 2h-6a2 2 0 0 1 2-2v-3h-7a1 1 0 0 1 -1-1v-10a1 1 0 0 1 1-1h7zm-5 5v2h12v-2zm0 4v2h7v-2z"/></svg>

<?xml version="1.0" encoding="UTF-8"?><!DOCTYPE svg PUBLIC "-//W3C//DTD SVG 1.1//EN" "http://www.w3.org/Graphics/SVG/1.1/DTD/svg11.dtd"><svg xmlns="http://www.w3.org/2000/svg" xmlns:xlink="http://www.w3.org/1999/xlink" version="1.1" id="mdi-sign-text" width="24" height="24" viewBox="0 0 24 24"><path d="M11,3L12,2L13,3V5H20A1,1 0 0,1 21,6V16A1,1 0 0,1 20,17H13V20A2,2 0 0,1 15,22H9A2,2 0 0,1 11,20V17H4A1,1 0 0,1 3,16V6A1,1 0 0,1 4,5H11V3M6,8V10H18V8H6M6,12V14H13V12H6Z" /></svg>
